X:5949
T:Gan Ainm
R:Reel
S:
H:
N:
D: Tony O'Connell & Diarmuid O'Brien Live on Clare FM
Z:Adrian Scahill
M:4/4
L:1/8
K:D
f2df edBd|(3ABA dc dAde|fddf edBA|(3Bcd gf (3efe de|\
f2df edBd|(3ABA dc dAde|faab afeg|1 fedB ABde:|2  fedB ABdf||\
e3f e2df|(3efe df efgf|edd2 edBd|(3ABA dA dABd|\
e3f e2df|(3efe df efgf|eaa2 ageg|1 fedB ABdf:|2 fedB ABde||


